launcher/android/assets/skins/day/svg/nav.svg

<svg enable-background="new 0 0 88.00 76.00" height="76" viewBox="0 0 88 76" width="88" xmlns="http://www.w3.org/2000/svg" xmlns:xlink="http://www.w3.org/1999/xlink"><linearGradient id="a" gradientTransform="matrix(0 1 -1 0 .228961 -.778777)" gradientUnits="objectBoundingBox" x1=".503869" x2="2.05368" y1="-.274908" y2="-.274908"><stop offset=".316279" stop-color="#f0f1ec" stop-opacity=".592157"/><stop offset=".800003" stop-color="#fff" stop-opacity="0"/></linearGradient><linearGradient id="b" gradientTransform="matrix(-.986419426397 .164245898658 -.164245898658 -.986419426397 1.939424360163 .714189860202)" gradientUnits="objectBoundingBox" x1=".940186" x2="2.52462" y1=".437275" y2=".437275"><stop offset=".274419" stop-color="#f0f1ec" stop-opacity=".501961"/><stop offset=".562791" stop-color="#fff" stop-opacity="0"/></linearGradient><linearGradient id="c" gradientTransform="matrix(-.998861941191 .04769509871 -.04769509871 -.998861941191 2.011747668143 .721913433323)" gradientUnits="objectBoundingBox" x1=".997261" x2="2.01805" y1=".384958" y2=".384958"><stop offset="0" stop-opacity=".862745"/><stop offset=".418605" stop-opacity=".862745"/><stop offset=".655814" stop-color="#1e1e1e" stop-opacity=".411765"/><stop offset=".902326" stop-color="#3a3a3a" stop-opacity="0"/></linearGradient><linearGradient id="d" gradientTransform="matrix(.904212827808 .427082149038 -.427082149038 .904212827808 -.305075913983 -.170553130286)" gradientUnits="objectBoundingBox" x1=".227681" x2="3.01549" y1="-.765391" y2="-.765391"><stop offset="0" stop-opacity=".862745"/><stop offset=".502326" stop-opacity=".862745"/><stop offset=".693023" stop-color="#1e1e1e" stop-opacity=".411765"/><stop offset=".800003" stop-color="#3a3a3a" stop-opacity="0"/></linearGradient><linearGradient id="e"><stop offset="0" stop-color="#1a1c1c"/><stop offset=".15814" stop-color="#383b3b"/><stop offset=".739535" stop-color="#6b7070"/><stop offset=".990698" stop-color="#4b4d4d"/></linearGradient><linearGradient id="f" gradientTransform="matrix(0 -1 1 0 -.236763 1.236763)" gradientUnits="objectBoundingBox" x1=".5" x2=".973527" xlink:href="#e" y1=".736763" y2=".736763"/><linearGradient id="g" gradientTransform="matrix(0 -1 1 0 -.242927 1.242927)" gradientUnits="objectBoundingBox" x1=".5" x2=".985854" xlink:href="#e" y1=".742927" y2=".742927"/><linearGradient id="h" gradientTransform="matrix(0 -1 1 0 -.348142 1.330854)" gradientUnits="objectBoundingBox" x1=".491356" x2="1.17035" xlink:href="#e" y1=".839498" y2=".839498"/><linearGradient id="i" gradientTransform="matrix(0 -1 1 0 -.357556 1.339568)" gradientUnits="objectBoundingBox" x1=".491006" x2="1.18813" xlink:href="#e" y1=".848562" y2=".848562"/><linearGradient id="j"><stop offset=".111628" stop-color="#eebb18"/><stop offset="1" stop-color="#9a802b"/></linearGradient><linearGradient id="k" gradientUnits="objectBoundingBox" x1="0" x2="1" xlink:href="#j" y1=".45625" y2=".45625"/><linearGradient id="l" gradientUnits="objectBoundingBox" x1="-.0851064" x2="1.08511" xlink:href="#j" y1=".451499" y2=".451499"/><linearGradient id="m" gradientTransform="matrix(0 1 -1 0 .297063 -.152587)" gradientUnits="objectBoundingBox" x1=".224825" x2=".831643" y1=".0722379" y2=".0722379"><stop offset=".334884"/><stop offset=".995349" stop-color="#3a3a3a"/></linearGradient><linearGradient id="n" gradientTransform="matrix(0 1 -1 0 .207871 -.156513)" gradientUnits="objectBoundingBox" x1=".182192" x2=".855058" y1=".0256788" y2=".0256788"><stop offset=".339535"/><stop offset=".995349" stop-color="#3a3a3a"/></linearGradient><linearGradient id="o" gradientTransform="matrix(-.273313618253 -.961924979444 .961924979444 -.273313618253 -.232447062576 1.452835828873)" gradientUnits="objectBoundingBox" x1=".432549" x2=".954299" y1=".814219" y2=".814219"><stop offset=".0697674"/><stop offset=".995349" stop-color="#3a3a3a"/></linearGradient><linearGradient id="p" gradientTransform="matrix(-.26733435807 -.963603829899 .963603829899 -.26733435807 -.271219868257 1.474954937025)" gradientUnits="objectBoundingBox" x1=".425123" x2=".993119" y1=".840587" y2=".840587"><stop offset=".120934"/><stop offset=".995349" stop-color="#3a3a3a"/></linearGradient><g stroke-linejoin="round"><path d="m13.4792 2.43747h61c6.0751 0 11 4.92487 11 11.00003v49.6667c0 6.0751-4.9249 11-11 11h-61c-6.07517 0-11.00004-4.9249-11.00004-11v-49.6667c0-6.07516 4.92487-11.00003 11.00004-11.00003z" fill="#8c9e64" stroke="#000"/><g stroke-width=".2"><path d="m73.499 4.92154h-58.1111c-3.034 0-6.8082.84714-9.5754 4.64534h.06589c.06588 35.59882 18.16601 35.71982 38.54311 35.71982 20.377 0 37.6866-.3444 38.016-35.80359v.02792c-1.4495-2.06667-3.3602-4.18919-8.9385-4.58949z" fill="url(#a)"/><path d="m73.2684 4.87499-16.9875 1.86187c-3.0339 0-19.1508-1.78743-21.918 2.01077l-8.0819 11.91597c4.3585 7.0054 19.6778-2.0853 22.0497-3.8354 23.631-3.0163 33.5468 28.0675 33.8762-7.39164v.02792c-1.4495-2.06666-3.3602-4.18918-8.9385-4.58949z" fill="url(#b)"/><path d="m35.1696 57.2102-17.305-3.2727c1.2481 7.6133 19.8119 11.168 22.9232 11.5607l2.5237-6.86z" fill="url(#c)"/><path d="m40.8057 65.5c5.0611.503 29.3217 2.625 32.3089-1.3125l-11.3199-3.0625-17.8327-2.4868-3.1742 6.86z" fill="url(#d)"/></g><path d="m49.981 59.269-.6232 4.2062c10.4901-.8251 17.663-9.247 17.663-20.4752 0-5.9246-3.5318-14.0603-7.3958-17.9375l-3.3125 2c2.9693 3.1661 6.0417 10.0592 6.0417 14.8542 0 8.7487-4.8403 16.0256-12.3732 17.3523z" fill="url(#g)" stroke="url(#f)"/><path d="m29.9472 39.6502c.0534-5.8882 1.2382-10.6774 4.157-13.0669l-.25-.5-4.6667 1.4167c-4.3196 2.85-3.8025 4.1607-3.875 11.8215-.1119 11.8274 10.9249 24.2202 22.3368 24.2202.5786 0 1.1483-.0224 1.7085-.0665l.6232-4.2062c-.8073.1422-1.6456.2161-2.5121.2161-8.9519 0-17.6095-10.149-17.5217-19.8349z" fill="url(#i)" stroke="url(#h)"/><path d="m25.0417 40.2402c.0518-6.169.9805-10.2784 3.8143-12.7818l-.0009-.0001-2.7097-3.7455c-4.194 2.9859-5.5333 8.1569-5.6037 16.183-.1087 12.3913 10.6073 25.375 21.6875 25.375s20.0625-10.0456 20.0625-22.4375c0-6.2071-2.3635-11.8255-6.1152-15.8876l-3.0785 2.8068c2.883 3.3171 4.6937 7.8698 4.6937 12.8933 0 10.1482-7.046 18.375-15.7377 18.375-8.6916 0-17.0976-10.6329-17.0123-20.7806z" fill="#6f7070" stroke="#6f7070"/><path d="m26.1788 23.6382 4.7581-1.4748 2.8837 3.8306-4.7581 1.4748z" fill="#4b4d4d" stroke="#4b4d4d"/><path d="m41.1771 11.0625 4.1354-.7083 7.6146 15.6927-3.7917 2.7239z" fill="url(#l)" stroke="url(#k)" stroke-width="2"/><path d="m41.1458 11.0208-8.5 16 16.3855 1.8334z" fill="#e2bb3c" stroke="#e2bb3c" stroke-width="2"/><path d="m35.7643 45.3735 1.1732 5.0015 2.5938-1.8125 2.6875-2.0833-2.6875-4.5029-2.7709-.7888z" fill="url(#n)" stroke="url(#m)"/><path d="m42.5933 29.6694-4.1875-.625-5.2964 3.7212 4.0677.6302 2.6864-1.7407z" fill="#3a3a3a" stroke="#3a3a3a"/><path d="m37.4271 33.3125 5.375 8.25 3.625-7.5417-3.75-4.375-5.3333 3.7084" fill="url(#p)" stroke="url(#o)"/><path d="m47.4375 52.9375 5.0729-2.7917v-18.7083l-5.125-.75-4.3854 2.875 2.5938 6.8125-2.1912-3.3344-.9836 7.0208z" fill="#3a3a3a" stroke="#3a3a3a"/><path d="m33.0625 32.8125.125 16.625 3.75.9375v-.0625-8.6875l.3097-.3107 6.2528 10.3107 3.875 1.3125v-18.6251l-4.375-.6874v8.5625l-5.75-8.75z" fill="#69696a" stroke="#69696a"/></g></svg>

﻿<?xml version="1.0" encoding="utf-8"?>
<!DOCTYPE svg PUBLIC "-//W3C//DTD SVG 1.1//EN" "http://www.w3.org/Graphics/SVG/1.1/DTD/svg11.dtd">
<svg xmlns="http://www.w3.org/2000/svg" xmlns:xlink="http://www.w3.org/1999/xlink" version="1.1" baseProfile="full" width="88" height="76" viewBox="0 0 88.00 76.00" enable-background="new 0 0 88.00 76.00" xml:space="preserve">
	<path fill="#8C9E64" fill-opacity="1" stroke-linejoin="round" stroke="#000000" stroke-opacity="1" d="M 13.4792,2.43747L 74.4792,2.43747C 80.5543,2.43747 85.4792,7.36234 85.4792,13.4375L 85.4792,63.1042C 85.4792,69.1793 80.5543,74.1042 74.4792,74.1042L 13.4792,74.1042C 7.40403,74.1042 2.47916,69.1793 2.47916,63.1042L 2.47916,13.4375C 2.47916,7.36234 7.40403,2.43747 13.4792,2.43747 Z "/>
	<linearGradient id="SVGID_Fill1_" gradientUnits="objectBoundingBox" x1="0.503869" y1="-0.274908" x2="2.05368" y2="-0.274908" gradientTransform="rotate(90.000000 0.503869 -0.274908)">
		<stop offset="0.316279" stop-color="#F0F1EC" stop-opacity="0.592157"/>
		<stop offset="0.800003" stop-color="#FFFFFF" stop-opacity="0"/>
	</linearGradient>
	<path fill="url(#SVGID_Fill1_)" stroke-width="0.2" stroke-linejoin="round" d="M 73.499,4.92154L 15.3879,4.92154C 12.3539,4.92154 8.5797,5.76868 5.8125,9.56688L 5.87839,9.56688C 5.94427,45.1657 24.0444,45.2867 44.4215,45.2867C 64.7985,45.2867 82.1081,44.9423 82.4375,9.48311L 82.4375,9.51103C 80.988,7.44436 79.0773,5.32184 73.499,4.92154 Z "/>
	<linearGradient id="SVGID_Fill2_" gradientUnits="objectBoundingBox" x1="0.940186" y1="0.437275" x2="2.52462" y2="0.437275" gradientTransform="rotate(170.546570 0.940186 0.437275)">
		<stop offset="0.274419" stop-color="#F0F1EC" stop-opacity="0.501961"/>
		<stop offset="0.562791" stop-color="#FFFFFF" stop-opacity="0"/>
	</linearGradient>
	<path fill="url(#SVGID_Fill2_)" stroke-width="0.2" stroke-linejoin="round" d="M 73.2684,4.87499L 56.2809,6.73686C 53.247,6.73686 37.1301,4.94943 34.3629,8.74763L 26.281,20.6636C 30.6395,27.669 45.9588,18.5783 48.3307,16.8282C 71.9617,13.8119 81.8775,44.8957 82.2069,9.43656L 82.2069,9.46448C 80.7574,7.39782 78.8467,5.2753 73.2684,4.87499 Z "/>
	<linearGradient id="SVGID_Fill3_" gradientUnits="objectBoundingBox" x1="0.997261" y1="0.384958" x2="2.01805" y2="0.384958" gradientTransform="rotate(177.266235 0.997261 0.384958)">
		<stop offset="0" stop-color="#000000" stop-opacity="0.862745"/>
		<stop offset="0.418605" stop-color="#000000" stop-opacity="0.862745"/>
		<stop offset="0.655814" stop-color="#1E1E1E" stop-opacity="0.411765"/>
		<stop offset="0.902326" stop-color="#3A3A3A" stop-opacity="0"/>
	</linearGradient>
	<path fill="url(#SVGID_Fill3_)" stroke-width="0.2" stroke-linejoin="round" d="M 35.1696,57.2102L 17.8646,53.9375C 19.1127,61.5508 37.6765,65.1055 40.7878,65.4982L 43.3115,58.6382L 35.1696,57.2102 Z "/>
	<linearGradient id="SVGID_Fill4_" gradientUnits="objectBoundingBox" x1="0.227681" y1="-0.765391" x2="3.01549" y2="-0.765391" gradientTransform="rotate(25.282528 0.227681 -0.765391)">
		<stop offset="0" stop-color="#000000" stop-opacity="0.862745"/>
		<stop offset="0.502326" stop-color="#000000" stop-opacity="0.862745"/>
		<stop offset="0.693023" stop-color="#1E1E1E" stop-opacity="0.411765"/>
		<stop offset="0.800003" stop-color="#3A3A3A" stop-opacity="0"/>
	</linearGradient>
	<path fill="url(#SVGID_Fill4_)" stroke-width="0.2" stroke-linejoin="round" d="M 40.8057,65.5C 45.8668,66.003 70.1274,68.125 73.1146,64.1875L 61.7947,61.125L 43.962,58.6382L 40.7878,65.4982 Z "/>
	<linearGradient id="SVGID_Stroke1_" gradientUnits="objectBoundingBox" x1="0.5" y1="0.736763" x2="0.973527" y2="0.736763" gradientTransform="rotate(-90.000000 0.500000 0.736763)">
		<stop offset="0" stop-color="#1A1C1C" stop-opacity="1"/>
		<stop offset="0.15814" stop-color="#383B3B" stop-opacity="1"/>
		<stop offset="0.739535" stop-color="#6B7070" stop-opacity="1"/>
		<stop offset="0.990698" stop-color="#4B4D4D" stop-opacity="1"/>
	</linearGradient>
	<linearGradient id="SVGID_Fill5_" gradientUnits="objectBoundingBox" x1="0.5" y1="0.742927" x2="0.985854" y2="0.742927" gradientTransform="rotate(-90.000000 0.500000 0.742927)">
		<stop offset="0" stop-color="#1A1C1C" stop-opacity="1"/>
		<stop offset="0.15814" stop-color="#383B3B" stop-opacity="1"/>
		<stop offset="0.739535" stop-color="#6B7070" stop-opacity="1"/>
		<stop offset="0.990698" stop-color="#4B4D4D" stop-opacity="1"/>
	</linearGradient>
	<path fill="url(#SVGID_Fill5_)" stroke-linejoin="round" stroke="url(#SVGID_Stroke1_)" d="M 49.981,59.269L 49.3578,63.4752C 59.8479,62.6501 67.0208,54.2282 67.0208,43C 67.0208,37.0754 63.489,28.9397 59.625,25.0625L 56.3125,27.0625C 59.2818,30.2286 62.3542,37.1217 62.3542,41.9167C 62.3542,50.6654 57.5139,57.9423 49.981,59.269 Z "/>
	<linearGradient id="SVGID_Stroke2_" gradientUnits="objectBoundingBox" x1="0.491356" y1="0.839498" x2="1.17035" y2="0.839498" gradientTransform="rotate(-90.000000 0.491356 0.839498)">
		<stop offset="0" stop-color="#1A1C1C" stop-opacity="1"/>
		<stop offset="0.15814" stop-color="#383B3B" stop-opacity="1"/>
		<stop offset="0.739535" stop-color="#6B7070" stop-opacity="1"/>
		<stop offset="0.990698" stop-color="#4B4D4D" stop-opacity="1"/>
	</linearGradient>
	<linearGradient id="SVGID_Fill6_" gradientUnits="objectBoundingBox" x1="0.491006" y1="0.848562" x2="1.18813" y2="0.848562" gradientTransform="rotate(-90.000000 0.491006 0.848562)">
		<stop offset="0" stop-color="#1A1C1C" stop-opacity="1"/>
		<stop offset="0.15814" stop-color="#383B3B" stop-opacity="1"/>
		<stop offset="0.739535" stop-color="#6B7070" stop-opacity="1"/>
		<stop offset="0.990698" stop-color="#4B4D4D" stop-opacity="1"/>
	</linearGradient>
	<path fill="url(#SVGID_Fill6_)" stroke-linejoin="round" stroke="url(#SVGID_Stroke2_)" d="M 29.9472,39.6502C 30.0006,33.762 31.1854,28.9728 34.1042,26.5833L 33.8542,26.0833L 29.1875,27.5C 24.8679,30.35 25.385,31.6607 25.3125,39.3215C 25.2006,51.1489 36.2374,63.5417 47.6493,63.5417C 48.2279,63.5417 48.7976,63.5193 49.3578,63.4752L 49.981,59.269C 49.1737,59.4112 48.3354,59.4851 47.4689,59.4851C 38.517,59.4851 29.8594,49.3361 29.9472,39.6502 Z "/>
	<path fill="#6F7070" fill-opacity="1" stroke-linejoin="round" stroke="#6F7070" stroke-opacity="1" d="M 25.0417,40.2402C 25.0935,34.0712 26.0222,29.9618 28.856,27.4584L 28.8551,27.4583L 26.1454,23.7128C 21.9514,26.6987 20.6121,31.8697 20.5417,39.8958C 20.433,52.2871 31.149,65.2708 42.2292,65.2708C 53.3094,65.2708 62.2917,55.2252 62.2917,42.8333C 62.2917,36.6262 59.9282,31.0078 56.1765,26.9457L 53.098,29.7525C 55.981,33.0696 57.7917,37.6223 57.7917,42.6458C 57.7917,52.794 50.7457,61.0208 42.054,61.0208C 33.3624,61.0208 24.9564,50.3879 25.0417,40.2402 Z "/>
	<path fill="#4B4D4D" fill-opacity="1" stroke-linejoin="round" stroke="#4B4D4D" stroke-opacity="1" d="M 26.1788,23.6382L 30.9369,22.1634L 33.8206,25.994L 29.0625,27.4688L 26.1788,23.6382 Z "/>
	<g>
		<linearGradient id="SVGID_Stroke3_" gradientUnits="objectBoundingBox" x1="0" y1="0.45625" x2="1" y2="0.45625">
			<stop offset="0.111628" stop-color="#EEBB18" stop-opacity="1"/>
			<stop offset="1" stop-color="#9A802B" stop-opacity="1"/>
		</linearGradient>
		<linearGradient id="SVGID_Fill7_" gradientUnits="objectBoundingBox" x1="-0.0851064" y1="0.451499" x2="1.08511" y2="0.451499">
			<stop offset="0.111628" stop-color="#EEBB18" stop-opacity="1"/>
			<stop offset="1" stop-color="#9A802B" stop-opacity="1"/>
		</linearGradient>
		<path fill="url(#SVGID_Fill7_)" stroke-width="2" stroke-linejoin="round" stroke="url(#SVGID_Stroke3_)" d="M 41.1771,11.0625L 45.3125,10.3542L 52.9271,26.0469L 49.1354,28.7708L 41.1771,11.0625 Z "/>
		<path fill="#E2BB3C" fill-opacity="1" stroke-width="2" stroke-linejoin="round" stroke="#E2BB3C" stroke-opacity="1" d="M 41.1458,11.0208L 32.6458,27.0208L 49.0313,28.8542L 41.1458,11.0208 Z "/>
	</g>
	<linearGradient id="SVGID_Stroke4_" gradientUnits="objectBoundingBox" x1="0.224825" y1="0.0722379" x2="0.831643" y2="0.0722379" gradientTransform="rotate(90.000000 0.224825 0.072238)">
		<stop offset="0.334884" stop-color="#000000" stop-opacity="1"/>
		<stop offset="0.995349" stop-color="#3A3A3A" stop-opacity="1"/>
	</linearGradient>
	<linearGradient id="SVGID_Fill8_" gradientUnits="objectBoundingBox" x1="0.182192" y1="0.0256788" x2="0.855058" y2="0.0256788" gradientTransform="rotate(90.000000 0.182192 0.025679)">
		<stop offset="0.339535" stop-color="#000000" stop-opacity="1"/>
		<stop offset="0.995349" stop-color="#3A3A3A" stop-opacity="1"/>
	</linearGradient>
	<path fill="url(#SVGID_Fill8_)" stroke-linejoin="round" stroke="url(#SVGID_Stroke4_)" d="M 35.7643,45.3735L 36.9375,50.375L 39.5313,48.5625L 42.2188,46.4792L 39.5313,41.9763L 36.7604,41.1875L 35.7643,45.3735 Z "/>
	<path fill="#3A3A3A" fill-opacity="1" stroke-linejoin="round" stroke="#3A3A3A" stroke-opacity="1" d="M 42.5933,29.6694L 38.4058,29.0444L 33.1094,32.7656L 37.1771,33.3958L 39.8635,31.6551L 42.5933,29.6694 Z "/>
	<linearGradient id="SVGID_Stroke5_" gradientUnits="objectBoundingBox" x1="0.432549" y1="0.814219" x2="0.954299" y2="0.814219" gradientTransform="rotate(254.138458 0.432549 0.814219)">
		<stop offset="0.0697674" stop-color="#000000" stop-opacity="1"/>
		<stop offset="0.995349" stop-color="#3A3A3A" stop-opacity="1"/>
	</linearGradient>
	<linearGradient id="SVGID_Fill9_" gradientUnits="objectBoundingBox" x1="0.425123" y1="0.840587" x2="0.993119" y2="0.840587" gradientTransform="rotate(254.494293 0.425123 0.840587)">
		<stop offset="0.120934" stop-color="#000000" stop-opacity="1"/>
		<stop offset="0.995349" stop-color="#3A3A3A" stop-opacity="1"/>
	</linearGradient>
	<path fill="url(#SVGID_Fill9_)" stroke-linejoin="round" stroke="url(#SVGID_Stroke5_)" d="M 37.4271,33.3125L 42.8021,41.5625L 46.4271,34.0208L 42.6771,29.6458L 37.3438,33.3542"/>
	<path fill="#3A3A3A" fill-opacity="1" stroke-linejoin="round" stroke="#3A3A3A" stroke-opacity="1" d="M 47.4375,52.9375L 52.5104,50.1458L 52.5104,31.4375L 47.3854,30.6875L 43,33.5625L 45.5938,40.375L 43.4026,37.0406L 42.419,44.0614L 47.4375,52.9375 Z "/>
	<path fill="#69696A" fill-opacity="1" stroke-linejoin="round" stroke="#69696A" stroke-opacity="1" d="M 33.0625,32.8125L 33.1875,49.4375L 36.9375,50.375L 36.9375,50.3125L 36.9375,41.625L 37.2472,41.3143L 43.5,51.625L 47.375,52.9375L 47.375,34.3124L 43,33.625L 43,42.1875L 37.25,33.4375L 33.0625,32.8125 Z "/>
</svg>
